src/assets/svgs/phone-symbol.svg

<!DOCTYPE svg PUBLIC "-//W3C//DTD SVG 1.1//EN" "http://www.w3.org/Graphics/SVG/1.1/DTD/svg11.dtd">

<!-- Uploaded to: SVG Repo, www.svgrepo.com, Transformed by: SVG Repo Mixer Tools -->
<svg width="64px" height="64px" viewBox="0 0 24 24" fill="none" xmlns="http://www.w3.org/2000/svg" transform="rotate(90)" stroke="#ffffff">

<g id="SVGRepo_bgCarrier" stroke-width="0"/>

<g id="SVGRepo_tracerCarrier" stroke-linecap="round" stroke-linejoin="round"/>

<g id="SVGRepo_iconCarrier"> <path d="M21 5.5C21 14.0604 14.0604 21 5.5 21C5.11378 21 4.73086 20.9859 4.35172 20.9581C3.91662 20.9262 3.69906 20.9103 3.50103 20.7963C3.33701 20.7019 3.18146 20.5345 3.09925 20.364C3 20.1582 3 19.9181 3 19.438V16.6207C3 16.2169 3 16.015 3.06645 15.842C3.12515 15.6891 3.22049 15.553 3.3441 15.4456C3.48403 15.324 3.67376 15.255 4.05321 15.117L7.26005 13.9509C7.70153 13.7904 7.92227 13.7101 8.1317 13.7237C8.31637 13.7357 8.49408 13.7988 8.64506 13.9058C8.81628 14.0271 8.93713 14.2285 9.17882 14.6314L10 16C12.6499 14.7999 14.7981 12.6489 16 10L14.6314 9.17882C14.2285 8.93713 14.0271 8.81628 13.9058 8.64506C13.7988 8.49408 13.7357 8.31637 13.7237 8.1317C13.7101 7.92227 13.7904 7.70153 13.9509 7.26005L13.9509 7.26005L15.117 4.05321C15.255 3.67376 15.324 3.48403 15.4456 3.3441C15.553 3.22049 15.6891 3.12515 15.842 3.06645C16.015 3 16.2169 3 16.6207 3H19.438C19.9181 3 20.1582 3 20.364 3.09925C20.5345 3.18146 20.7019 3.33701 20.7963 3.50103C20.9103 3.69907 20.9262 3.91662 20.9581 4.35173C20.9859 4.73086 21 5.11378 21 5.5Z" stroke="#ffffff" stroke-width="2" stroke-linecap="round" stroke-linejoin="round"/> </g>

</svg>

<svg xmlns="http://www.w3.org/2000/svg" width="64" height="64" fill="none" stroke="#fff" transform="rotate(90)" viewBox="0 0 24 24"><path stroke-linecap="round" stroke-linejoin="round" stroke-width="2" d="M21 5.5C21 14.06 14.06 21 5.5 21a15.7 15.7 0 0 1-1.148-.042c-.435-.032-.653-.048-.851-.162a1.06 1.06 0 0 1-.402-.432C3 20.158 3 19.918 3 19.438v-2.817c0-.404 0-.606.066-.779a1 1 0 0 1 .278-.396c.14-.122.33-.191.71-.329l3.206-1.166c.442-.16.662-.24.872-.227a1 1 0 0 1 .513.182c.171.121.292.322.534.725L10 16a12.1 12.1 0 0 0 6-6l-1.369-.821c-.402-.242-.604-.363-.725-.534a1 1 0 0 1-.182-.513c-.014-.21.066-.43.227-.872h0l1.166-3.207c.138-.38.207-.569.329-.709a1 1 0 0 1 .396-.278C16.015 3 16.217 3 16.621 3h2.817c.48 0 .72 0 .926.1.17.081.338.237.432.401.114.198.13.416.162.85.028.38.042.763.042 1.149Z"/></svg>
